X:1
T:Title
%%score { 1 | 2 }
L:1/8
M:6/4
K:Bb
V:1 treble nm="Grand Piano"
V:2 bass 
V:1
 z6 z4[Q:1/4=144] [DF]2 | [DF]2 [EG]2 [DF]2 [B,D]2 [DF]2 [DB]2 | [Fd]6 [Ge]4 [Fd]2 | %3
 c2 G2 B2 A2 B2 c2 |[M:5/4] [DB]2- [DB]2- [DB]6 |[M:1/4] [FA]2 | %6
[M:6/4] G2 G2 G2 [GB]2 [FA]2 [EG]2 | [DF]6 [DB]4 [Fd]2 | [Fc]2 [Fd]2 [Fc]2 [=EB]2 [EA]2 [EG]2 | %9
 F12 | [Fd]4 [Ec]2 [DB]2 [DF]2 [DG]2 | [EA]4 [EG]2 [EF]6 | [Ge]4 d2 c2 B2 c2 | %13
[M:5/4] [Fd]4 [Ec]2 [DB]4 |[M:1/4] [DF][DF] |[M:6/4] [B,EG]4 [D^FA]2 [DGB]4 [DFA]2 | %16
 [DGB]4 [FAc]2 [FBd]4 [GBe][GBe] | [FBd]2 c2 B2 c4 A2 |[M:5/4] [DB]2- [DB]2- [DB]6 |] %19
V:2
 z6 z4 [B,,B,]2 | [B,,B,]2 [B,,B,]2 [B,,B,]2 [B,,F,]2 [B,,B,]2 [B,,B,]2 | %2
 [B,,B,]6 [B,,B,]4 [B,,B,]2 | [E,G,E]2 [E,CE]2 [E,CE]2 [F,CE]2 [F,G,E]2 [F,A,E]2 | %4
[M:5/4] [B,,B,]2- [B,,B,]2- [B,,B,]6 |[M:1/4] [D,B,]2 | %6
[M:6/4] [E,B,E]2 [E,B,E]2 [E,B,E]2 [E,G,]2 [E,A,]2 [E,B,]2 | [B,,B,]6 [B,,B,]4 [B,,B,]2 | %8
 [C,A,]2 [C,A,]2 [C,A,]2 [C,G,]2 [C,C]2 [C,B,]2 | [F,A,]12 | %10
 [B,,B,]4 [B,,F,]2 [B,,F,]2 [B,,B,]2 [B,,G,]2 | [C,F,]4 [C,F,]2 [F,A,]6 | %12
 [F,A,]4 [F,A,F]2 [F,A,E]2 [F,G,E]2 [F,A,E]2 |[M:5/4] [B,,B,]4 [B,,F,]2 [B,,F,]4 | %14
[M:1/4] [B,,B,][B,,B,] |[M:6/4] E,4 D,2 G,4 D,2 | G,4 F,2 B,4 E,E, | %17
 F,2 [F,EF]2 [F,DF]2 [F,A,E]4 [F,CE]2 |[M:5/4] [B,,B,]2- [B,,B,]2- [B,,B,]6 |] %19

